src/assets/images/logos/Chipotle_logo.svg

<svg xmlns="http://www.w3.org/2000/svg" width="175" height="175" fill="none"><g clip-path="url(#A)"><path d="M-1.625-.125h179v180h-179z" fill="url(#A)"/><path d="M172.5 87.49c0 46.955-38.06 85-85.008 85-46.934 0-84.992-38.055-84.992-85C2.5 40.56 40.558 2.5 87.492 2.5c46.95 0 85.008 38.06 85.008 84.992z" fill="#fff"/><path d="M168.012 87.49c0 44.474-36.048 80.52-80.52 80.52-44.458 0-80.507-36.046-80.507-80.52 0-44.46 36.05-80.507 80.507-80.507 44.473 0 80.52 36.048 80.52 80.507zm-80.52-48.604c-26.836 0-48.6 21.764-48.6 48.604 0 26.853 21.764 48.616 48.6 48.616 26.857 0 48.622-21.764 48.622-48.616-.001-26.84-21.765-48.604-48.622-48.604z" fill="#AB2318"/><path d="M132.86 87.49c0 25.05-20.306 45.36-45.367 45.36-25.033 0-45.337-20.3-45.337-45.36 0-25.04 20.304-45.346 45.337-45.346 25.06 0 45.367 20.306 45.367 45.346z" fill="#451500"/><g fill="#fff"><path d="M103.707 54.123c.592.07 3.207.988 3.207.988l3.17 4.484c.65.793.36 1.367.36 1.367l-1.238 4.524s.45.37 0 0c-.456-.367-3.797-.064-4.593.01s.722-.938 1.082-1.296 1.802-1.368 1.618-1.946c-.173-.577-2.35-4.78-2.35-4.78s-3.795-.038-5.596.178-5.587 3.984-5.587 3.984l-1.378 5.446s.556 1.002 1.35 1.65 3.097.43 3.96.36.506.938-.214 1.585-3.313.647-3.313.647l1.077.36c1.192 1.08 3.376 6.616 4.665 7.9 1.288 1.282-.04 7.775-1.888 9.624-1.853 1.84-2.734 5.82-3.86 6.947-1.134 1.13-2.3.687-1.134 1.852 1.174 1.16.63 2.568.813 3.595.12.66.306 1.86.876 2.424.555.563 9.095 6.48 12.527 6.75.625.052.633 3.064-2.885 6.765 0 0-.628 2.138-6.493 2.325-6.4.2-12.694-.868-14.142-.868s-5.65-2.4-5.65-2.4c-.8 0-14.158-18.582-14.158-19.865s-.948-4.763-.948-6.05 1.487-13.054 1.25-14.478c-.2-1.12.395-1.38 1.683-2.668s3.607-3.462 4.488-4.345c.398-.396 3.477-.3 7.2-1.108l.577-.246-.742-.36s-1.2-1.5-3.14-1.438-2.593.215-1.584-.214 2.82-1.797 2.82-1.797l4.233 1.87h3.2l4-3.3 9.094-7.388 7.63-1.107zM74.63 77.5c-1.075.195-2.8-.112-3.628 1.375l-1.552 6.742.316 8.113c.146 1.336 1.893 5.702 2.87 6.684.862.862 2.538 3.713 4.056 5.216.4.404 1.245.6 1.595 1.072.632.854.238.266-.894-1.4-4.163-6.165-5.062-11.486-5.264-12.395-.445-1.986-.117-6.644 0-8.512.06-1 .747-3.206 1.398-3.703.307-.235 3.162-.552 3.737-.715.9-.262 2.156-.245 2.973-.413 2.616-.538 7.425.8 7.75.955 3.916 1.8 2.396 2.44 2.454 2.654.063.22-5.45 11.322-5.425 11.846.025.563.226 6.116.744 7.633.153.448 1.894 4.65 2.208 5.4 1.377 3.34-2.966-.553-3.245-.707s-6-10-6.838-12.1c-.56-1.406-.355-3.523-.244-3.973.148-.616-.294-5.37.6-6.02.6-.44 3.28-.7 4.575-.143 1.177.516 1.8 1.836 1.688 2.147-.095.262-1.956 6.264-2.244 5.762-.094-.165-.1-2.065-.346-2.254-.248-.194-1.615-.478-1.782-.262-.168.227-.498 2.24-.324 2.93.826 3.337 2.755 2.298 3.12 1.675.543-.926 3.162-8.3 3.114-8.774-.1-1.085-.913-2.954-2.614-3.526-1.02-.34-5.455-.152-6.676.487-1.874.984-1.763 9.506-1.406 10.747.357 1.23 6.26 11.145 6.537 11.906.546 1.485 4.12 5.016 4.68 5.348.233.14 5.1 2.035 5.74 1.086.276-.413.14-1.563-1.08-2.36-1.16-.763-3.94-8.863-3.93-9.502.01-.598-.724-5.1-.236-6.046.924-1.792 7.564-11.745 6.837-12.543-.974-1.078-3.953-6.1-5.35-4.208-1.26 1.7-7.232-.05-8.718-1.14-.112-.084-3.632.618-5.186.904zm20.107 38.4c1.93 0 7.307-2.863 5.314-4.18-1.26-.827-2.74-1.933-5.47-4.022-1.226-.938-1.762-.683-2.14-.683-1.128 0 .703-1.82.1-3.287-.666-1.6-1.044-4.052-1.605-4.6-.565-.565-.334-3.526.846-4.707 1.3-1.3 3.142-5.04 4.16-6.474 1.213-1.715 2.044-5.48 1.566-5.966-.488-.48-2.7-5.053-3.65-6.02-.625-.622-1.645-2.15-2.67-3.394l-.24-.342-1.037.6c-1.037.597-2.318 1.824-2.318 1.824s-.892.295-2.955-.12c-1.112-.222-1.514-1.005-1.514-1.894s-.58-.663-.58-.663-10.417.506-11.183.945c-.758.444-4.087 5.005-4.087 5.005s-1.773 17.34-.406 18.713c1.634 1.63 10.148 15.042 11.742 16.643 1.584 2.166 14.2 2.638 16.13 2.638zm-73.63-27.575a1.84 1.84 0 0 0 1.875 1.795c1.014-.022 1.82-.857 1.797-1.872a1.83 1.83 0 0 0-1.873-1.795c-1.013.018-1.816.856-1.8 1.872zm7.6 35.307l8.46-5.794 4.368 6.376-1.652 1.138-3.106-4.53-1.718 1.175 2.736 3.988-1.654 1.136-2.735-3.985-1.776 1.215 3.15 4.588-1.656 1.14-4.416-6.445zm14.046 16.45l.688-4.138-4.082 1.022-1.885-1.735 6.157-1.42.882-6.022 1.94 1.78-.66 3.9 3.844-.985 1.88 1.733-5.908 1.37-.916 6.274-1.94-1.787zm7.8 5.797l5.394-8.7 1.915 1.186-5.396 8.703-1.913-1.188zm13.3 6.83c-2.818-1.08-4.085-4.045-3.036-6.8l.01-.03c1.04-2.724 3.938-4.17 6.882-3.046 1.806.683 2.656 1.702 3.212 2.916l-1.926 1.036c-.483-.953-1.083-1.654-2.04-2.02-1.614-.62-3.3.28-3.912 1.93l-.01.025c-.627 1.64-.013 3.443 1.63 4.072 1.093.414 1.934.234 2.946-.166l.824 1.868c-1.4.676-2.73.915-4.578.214zm18.768 3.996l-.654-2.4-4.304-.528-1.208 2.17-2.283-.276 5.606-9.723 2.066.245 3.115 10.784-2.338-.283zm-2.164-7.94L78.7 151.9l2.707.327-.952-3.47zm18.83 7.217l-5.734-5.848.806 6.467-2.214.272-1.268-10.165 2.068-.256 5.548 5.66-.78-6.252 2.2-.28 1.263 10.166-1.9.236zm18.03-5.426c-2.9 1.332-5.836.207-7.103-2.552l-.01-.023c-1.22-2.648-.146-5.767 2.677-7.058 1.675-.77 2.893-.78 4.246-.4l-.575 2.147c-.995-.27-1.793-.32-2.87.17-1.494.684-2.074 2.55-1.347 4.13l.013.026c.784 1.704 2.53 2.42 4.175 1.664.75-.344 1.326-.84 1.677-1.448l-.6-1.334-2.064.95-.8-1.773 4.037-1.86 1.864 4.05c-.6 1.257-1.6 2.525-3.3 3.308zm15.357-9.973l-3.76-1.2-1.394 1.093 2.036 2.575-1.765 1.403-6.36-8.04 3.67-2.908c1.9-1.5 3.828-1.4 5.135.256l.016.02c1.027 1.297.977 2.67.25 3.855l4.232 1.322-2.062 1.633zm-4.156-5.326c-.598-.754-1.438-.726-2.298-.05l-1.753 1.397 1.817 2.302 1.794-1.416c.865-.675.998-1.528.456-2.206l-.016-.028zm11.144-1.483l-7.743-6.712 1.477-1.7 7.735 6.712-1.47 1.7zm6.215-7.923l-8.8-5.248 1.155-1.933 7.04 4.195 2.616-4.38 1.763 1.043-3.774 6.322zm6.697-12.83l-9.694-3.3.726-2.134 7.76 2.65 1.654-4.835 1.933.658-2.378 6.97zM24.03 114.45l6.272-2.34-5.113-1.176-.022-.054 3.065-4.2-6.23 2.322-.774-2.07 9.605-3.584.85 2.282-3.12 4.036 5.007 1.012.85 2.28-9.605 3.584-.784-2.102zm16.065-66.48a.52.52 0 0 0 .01.743l3.982 3.888a.53.53 0 0 1 .008.741l-1.532 1.57a.52.52 0 0 1-.743.009L29.367 42.757a.53.53 0 0 1-.009-.747l1.53-1.564c.202-.2.536-.214.743-.01l5.568 5.44a.53.53 0 0 0 .745-.009l5.963-6.105a.53.53 0 0 0-.006-.744l-5.57-5.44a.53.53 0 0 1-.007-.744l1.53-1.566c.206-.205.54-.2.746-.01l12.45 12.167c.208.2.2.533.01.743l-1.53 1.568c-.203.204-.54.2-.75.007l-3.98-3.888c-.206-.203-.54-.198-.744.01l-5.964 6.105zM53.95 21.877c.26-.132.58-.034.7.225l8.057 15.428c.13.254.035.574-.225.713l-1.94 1a.53.53 0 0 1-.711-.219l-8.057-15.43a.53.53 0 0 1 .227-.712l1.937-1.014zM97.3 33.92c-5.6-.977-8.743-5.895-7.84-11.04s5.608-8.738 11.197-7.756c5.575.98 8.73 5.892 7.826 11.042-.9 5.144-5.6 8.734-11.182 7.753zm2.8-15.865c-3.613-.636-6.647 1.806-7.274 5.363-.622 3.56 1.437 6.94 5.05 7.576s6.632-1.8 7.258-5.364c.62-3.555-1.435-6.943-5.035-7.575zm17.4 22.765c-.15.248-.474.335-.725.182l-1.902-1.132a.53.53 0 0 1-.179-.724l7.375-12.373c.142-.245.068-.568-.184-.722l-4.12-2.457c-.254-.15-.328-.47-.183-.72l.995-1.677c.154-.25.476-.335.73-.186l11.956 7.138c.25.145.335.47.187.72l-1.002 1.678a.53.53 0 0 1-.721.18l-4.125-2.46a.53.53 0 0 0-.724.186L117.5 40.82zm21.97-4.817c.216-.2.555-.162.738.056l1.43 1.66a.53.53 0 0 1-.058.744l-10.954 9.422a.52.52 0 0 0-.064.741l5.645 6.56c.184.22.16.555-.054.747l-1.44 1.235a.54.54 0 0 1-.749-.051l-7.757-9.027a.53.53 0 0 1 .056-.739l13.206-11.348zm16.924 32.705c-.273.103-.57-.034-.678-.305l-3.3-8.8a.52.52 0 0 0-.676-.311l-4.593 1.723c-.268.102-.4.405-.3.68l2.476 6.592a.54.54 0 0 1-.3.68l-1.733.645c-.27.102-.573-.035-.676-.307l-2.473-6.592a.53.53 0 0 0-.676-.312l-2.572.965c-.276.103-.414.407-.3.68l3.34 8.914a.52.52 0 0 1-.307.679l-1.728.65c-.27.103-.575-.04-.676-.3l-4.5-11.95c-.097-.272.042-.578.312-.678l16.294-6.115a.53.53 0 0 1 .682.307l4.443 11.832c.096.27-.045.574-.313.674l-1.727.65zM81.82 20.473c-.746-3.7-4.786-5.532-8.998-4.676l-6.617 1.34a.53.53 0 0 0-.412.619l3.462 17.06c.054.28.334.472.616.412l2.15-.435c.283-.06.47-.34.413-.625l-.972-4.78a.53.53 0 0 1 .414-.621l3.074-.624c3.982-.8 7.7-3.583 6.87-7.672zM71.292 25.9c-.286.06-.562-.126-.62-.4l-1.114-5.482c-.056-.28.13-.566.415-.624l3.174-.644c2.38-.48 4.13.323 4.564 2.47.395 1.937-.836 3.557-3.242 4.048l-3.177.642zm-48.9 33.928c.753-1.745 2.078-2.83 3.7-3.6a.53.53 0 0 0 .243-.708l-.925-1.924c-.13-.256-.444-.368-.7-.24-2.002.946-3.8 2.415-5.035 5.258-2.234 5.132.138 10.45 4.976 12.557l-.096-.043c4.835 2.104 10.342.216 12.57-4.917 1.242-2.84 1.096-5.154.432-7.27a.54.54 0 0 0-.659-.347l-2.046.634a.53.53 0 0 0-.343.66c.532 1.7.64 3.4-.116 5.154-1.418 3.246-5.096 4.434-8.43 2.98-3.343-1.448-4.98-4.95-3.56-8.197zm129.703 26.625c-1.014-.02-1.852.782-1.874 1.795s.783 1.85 1.797 1.872 1.854-.785 1.872-1.795a1.83 1.83 0 0 0-1.795-1.872z"/></g></g><defs><clipPath id="A"><path d="M0 0h175v175H0z" fill="#fff"/></clipPath></defs></svg>

<svg width="175" height="175" viewBox="0 0 175 175" fill="none" xmlns="http://www.w3.org/2000/svg" xmlns:xlink="http://www.w3.org/1999/xlink">
<g clip-path="url(#clip0)">
<rect x="-1.625" y="-0.125" width="179" height="180" fill="url(#pattern0)"/>
<path d="M172.5 87.491C172.5 134.446 134.441 172.501 87.492 172.501C40.558 172.501 2.5 134.446 2.5 87.491C2.5 40.559 40.558 2.49899 87.492 2.49899C134.441 2.49899 172.5 40.559 172.5 87.491Z" fill="white"/>
<path d="M168.012 87.491C168.012 131.965 131.964 168.011 87.491 168.011C43.033 168.011 6.98401 131.965 6.98401 87.491C6.98401 43.032 43.033 6.98401 87.491 6.98401C131.964 6.98401 168.012 43.032 168.012 87.491ZM87.492 38.887C60.656 38.887 38.892 60.651 38.892 87.491C38.892 114.344 60.656 136.107 87.492 136.107C114.349 136.107 136.114 114.343 136.114 87.491C136.113 60.651 114.349 38.887 87.492 38.887Z" fill="#AB2318"/>
<path d="M132.859 87.491C132.859 112.542 112.553 132.852 87.492 132.852C62.459 132.852 42.155 112.542 42.155 87.491C42.155 62.451 62.459 42.145 87.492 42.145C112.553 42.145 132.859 62.451 132.859 87.491Z" fill="#451500"/>
<path d="M103.707 54.123C104.299 54.194 106.914 55.111 106.914 55.111C106.914 55.111 109.437 58.803 110.083 59.595C110.732 60.388 110.443 60.962 110.443 60.962L109.205 65.486C109.205 65.486 109.655 65.855 109.205 65.486C108.749 65.119 105.408 65.422 104.612 65.496C103.816 65.565 105.334 64.558 105.694 64.2C106.054 63.84 107.496 62.832 107.312 62.254C107.139 61.677 104.963 57.473 104.963 57.473C104.963 57.473 101.168 57.435 99.367 57.651C97.566 57.866 93.78 61.635 93.78 61.635L92.402 67.081C92.402 67.081 92.958 68.083 93.751 68.732C94.543 69.381 96.848 69.162 97.711 69.091C98.573 69.022 98.217 70.029 97.497 70.676C96.773 71.323 94.184 71.323 94.184 71.323L95.261 71.684C96.453 72.765 98.637 78.3 99.926 79.593C101.214 80.875 99.887 87.368 98.038 89.217C96.185 91.058 95.304 95.038 94.177 96.164C93.043 97.294 91.877 96.851 93.043 98.016C94.217 99.177 93.672 100.584 93.856 101.611C93.976 102.271 94.162 103.472 94.732 104.035C95.287 104.598 103.827 110.514 107.259 110.786C107.884 110.838 107.892 113.85 104.374 117.551C104.374 117.551 103.746 119.689 97.881 119.876C91.481 120.076 85.187 119.008 83.739 119.008C82.295 119.008 78.09 116.618 78.09 116.618C77.29 116.618 63.932 98.036 63.932 96.753C63.932 95.465 62.984 91.99 62.984 90.702C62.984 89.418 64.471 77.648 64.233 76.224C64.044 75.104 64.628 74.844 65.916 73.556C67.202 72.272 69.523 70.094 70.404 69.211C70.802 68.815 73.881 68.901 77.614 68.103L78.191 67.857L77.449 67.498C77.449 67.498 76.249 65.988 74.308 66.06C72.367 66.131 71.715 66.275 72.724 65.846C73.733 65.414 75.543 64.049 75.543 64.049L79.776 65.918H82.975L86.984 62.618L96.078 55.23L103.707 54.123ZM74.631 77.511C73.556 77.706 71.82 77.399 71.003 78.886L69.451 85.628C69.451 85.628 69.618 92.398 69.767 93.741C69.913 95.077 71.66 99.443 72.636 100.425C73.498 101.287 75.174 104.138 76.692 105.641C77.103 106.045 77.937 106.24 78.287 106.713C78.919 107.567 78.525 106.979 77.393 105.303C73.23 99.138 72.331 93.817 72.129 92.908C71.684 90.922 72.012 86.264 72.129 84.396C72.189 83.407 72.876 81.19 73.527 80.693C73.834 80.458 76.689 80.141 77.264 79.978C78.154 79.716 79.42 79.733 80.237 79.565C82.853 79.027 87.662 80.365 87.988 80.52C91.904 82.33 90.384 82.961 90.442 83.174C90.505 83.395 84.991 94.496 85.017 95.02C85.042 95.583 85.243 101.136 85.761 102.653C85.914 103.101 87.655 107.302 87.969 108.063C89.346 111.402 85.003 107.51 84.724 107.356C84.443 107.199 78.714 97.355 77.886 95.267C77.327 93.861 77.531 91.744 77.642 91.294C77.79 90.678 77.348 85.925 78.231 85.274C78.83 84.833 81.511 84.563 82.806 85.131C83.983 85.647 84.615 86.967 84.494 87.278C84.399 87.54 82.538 93.542 82.25 93.04C82.156 92.875 82.149 90.975 81.904 90.786C81.656 90.592 80.289 90.308 80.122 90.524C79.954 90.751 79.624 92.764 79.798 93.455C80.624 96.792 82.553 95.753 82.919 95.13C83.462 94.204 86.081 86.831 86.033 86.356C85.922 85.271 85.12 83.402 83.419 82.83C82.4 82.489 77.964 82.678 76.743 83.317C74.869 84.301 74.98 92.823 75.337 94.064C75.694 95.295 81.596 105.209 81.874 105.97C82.42 107.455 85.994 110.986 86.553 111.318C86.786 111.459 91.663 113.353 92.294 112.404C92.57 111.991 92.433 110.841 91.215 110.045C90.054 109.282 87.274 101.182 87.284 100.543C87.295 99.945 86.56 95.434 87.048 94.497C87.972 92.705 94.612 82.752 93.885 81.954C92.911 80.876 89.932 75.853 88.535 77.746C87.274 79.457 81.303 77.695 79.817 76.607C79.705 76.523 76.185 77.225 74.631 77.511ZM94.737 115.899C96.667 115.899 102.044 113.036 100.051 111.72C98.791 110.893 97.311 109.787 94.581 107.698C93.355 106.76 92.819 107.015 92.442 107.015C91.314 107.015 93.145 105.196 92.541 103.728C91.875 102.128 91.497 99.676 90.936 99.119C90.371 98.554 90.602 95.593 91.782 94.412C93.073 93.123 94.924 89.373 95.942 87.938C97.155 86.223 97.986 82.457 97.508 81.972C97.02 81.492 94.817 76.919 93.857 75.953C93.232 75.331 92.212 73.803 91.186 72.559L90.945 72.217C90.945 72.217 90.945 72.217 89.908 72.807C88.871 73.404 87.59 74.631 87.59 74.631C87.59 74.631 86.698 74.926 84.635 74.512C83.523 74.29 83.121 73.507 83.121 72.618C83.121 71.73 82.541 71.955 82.541 71.955C82.541 71.955 72.124 72.461 71.358 72.9C70.6 73.344 67.271 77.905 67.271 77.905C67.271 77.905 65.498 95.246 66.865 96.618C68.499 98.247 77.013 111.66 78.607 113.261C80.191 115.427 92.807 115.899 94.737 115.899Z" fill="white"/>
<path d="M21.106 88.325C21.129 89.334 21.968 90.14 22.981 90.12C23.995 90.098 24.8 89.263 24.778 88.248C24.759 87.234 23.92 86.431 22.905 86.453C21.892 86.471 21.089 87.309 21.106 88.325ZM28.695 123.632L37.155 117.838L41.523 124.214L39.871 125.352L36.765 120.821L35.047 121.996L37.783 125.984L36.129 127.12L33.394 123.135L31.618 124.35L34.767 128.938L33.111 130.077L28.695 123.632ZM42.741 140.082L43.429 135.944L39.347 136.966L37.462 135.231L43.619 133.81L44.501 127.788L46.44 129.567L45.779 133.478L49.623 132.493L51.504 134.226L45.596 135.595L44.68 141.869L42.741 140.082ZM50.55 145.879L55.944 137.178L57.859 138.364L52.463 147.067L50.55 145.879ZM63.841 152.71C61.023 151.629 59.756 148.665 60.805 145.91L60.814 145.881C61.853 143.157 64.752 141.712 67.696 142.835C69.502 143.518 70.352 144.537 70.908 145.751L68.982 146.787C68.499 145.834 67.899 145.133 66.942 144.768C65.328 144.149 63.652 145.049 63.03 146.697L63.019 146.722C62.392 148.362 63.006 150.165 64.649 150.794C65.742 151.208 66.583 151.028 67.595 150.628L68.419 152.496C67.03 153.172 65.688 153.411 63.841 152.71ZM82.609 156.706L81.955 154.317L77.651 153.789L76.443 155.959L74.16 155.683L79.766 145.96L81.832 146.205L84.947 156.989L82.609 156.706ZM80.445 148.767L78.69 151.909L81.397 152.236L80.445 148.767ZM99.276 155.984L93.542 150.136L94.348 156.603L92.134 156.875L90.866 146.71L92.934 146.454L98.482 152.114L97.703 145.862L99.914 145.582L101.177 155.748L99.276 155.984ZM117.306 150.558C114.405 151.89 111.47 150.765 110.203 148.006L110.193 147.983C108.974 145.335 110.047 142.216 112.87 140.925C114.545 140.156 115.763 140.145 117.116 140.525L116.541 142.672C115.546 142.402 114.748 142.352 113.672 142.843C112.178 143.527 111.598 145.394 112.325 146.972L112.338 146.998C113.122 148.702 114.869 149.419 116.513 148.662C117.262 148.318 117.839 147.823 118.19 147.214L117.58 145.88L115.516 146.831L114.706 145.058L118.743 143.199L120.607 147.25C120.017 148.507 119.006 149.775 117.306 150.558ZM132.663 140.585L128.903 139.375L127.509 140.468L129.545 143.043L127.78 144.446L121.421 136.406L125.092 133.498C126.992 131.999 128.92 132.098 130.227 133.754L130.243 133.775C131.27 135.072 131.22 136.444 130.493 137.63L134.725 138.952L132.663 140.585ZM128.507 135.259C127.909 134.505 127.069 134.533 126.209 135.21L124.456 136.607L126.273 138.909L128.067 137.493C128.932 136.818 129.065 135.965 128.523 135.287L128.507 135.259ZM139.651 133.776L131.908 127.064L133.385 125.364L141.12 132.076L139.651 133.776ZM145.866 125.853L137.067 120.605L138.222 118.672L145.261 122.867L147.877 118.488L149.64 119.531L145.866 125.853ZM152.563 113.024L142.869 109.713L143.595 107.579L151.354 110.23L153.008 105.395L154.941 106.053L152.563 113.024ZM24.03 114.454L30.302 112.115L25.189 110.939L25.167 110.885L28.232 106.694L22.003 109.016L21.229 106.947L30.834 103.363L31.684 105.645L28.563 109.681L33.57 110.693L34.419 112.972L24.814 116.556L24.03 114.454ZM40.095 47.97C39.893 48.176 39.893 48.51 40.104 48.713L44.086 52.601C44.291 52.806 44.294 53.136 44.094 53.342L42.562 54.912C42.358 55.121 42.023 55.127 41.819 54.921L29.367 42.757C29.158 42.55 29.158 42.219 29.358 42.01L30.889 40.446C31.091 40.236 31.425 40.232 31.632 40.435L37.2 45.876C37.405 46.075 37.742 46.074 37.945 45.867L43.908 39.762C44.111 39.553 44.107 39.217 43.902 39.018L38.333 33.577C38.126 33.376 38.124 33.04 38.326 32.833L39.855 31.267C40.061 31.062 40.396 31.056 40.601 31.257L53.051 43.424C53.259 43.625 53.262 43.957 53.061 44.167L51.531 45.735C51.328 45.939 50.991 45.945 50.782 45.742L46.803 41.854C46.597 41.651 46.263 41.656 46.059 41.865L40.095 47.97ZM53.95 21.877C54.209 21.745 54.529 21.843 54.661 22.102L62.718 37.53C62.849 37.784 62.753 38.104 62.493 38.243L60.554 39.253C60.298 39.388 59.978 39.288 59.843 39.034L51.786 23.603C51.653 23.347 51.752 23.024 52.013 22.891L53.95 21.877ZM97.311 33.921C91.72 32.944 88.568 28.026 89.47 22.882C90.369 17.741 95.078 14.144 100.667 15.126C106.242 16.106 109.397 21.018 108.493 26.168C107.593 31.312 102.894 34.902 97.311 33.921ZM100.1 18.056C96.487 17.42 93.453 19.862 92.826 23.419C92.204 26.978 94.263 30.359 97.877 30.995C101.491 31.631 104.509 29.186 105.135 25.631C105.755 22.076 103.7 18.688 100.1 18.056ZM117.5 40.821C117.35 41.069 117.026 41.156 116.775 41.003L114.873 39.871C114.627 39.722 114.545 39.395 114.694 39.147L122.069 26.774C122.211 26.529 122.137 26.206 121.885 26.052L117.764 23.595C117.51 23.444 117.436 23.125 117.581 22.876L118.576 21.199C118.73 20.948 119.052 20.864 119.305 21.013L131.261 28.151C131.511 28.296 131.596 28.621 131.448 28.871L130.446 30.549C130.298 30.797 129.969 30.878 129.725 30.729L125.6 28.268C125.35 28.12 125.025 28.205 124.876 28.454L117.5 40.821ZM139.47 36.004C139.686 35.815 140.025 35.842 140.208 36.06L141.639 37.72C141.827 37.939 141.801 38.277 141.581 38.464L130.627 47.886C130.398 48.077 130.375 48.408 130.563 48.627L136.208 55.187C136.392 55.408 136.367 55.742 136.154 55.934L134.714 57.169C134.486 57.357 134.155 57.334 133.965 57.118L126.208 48.091C126.023 47.877 126.044 47.542 126.264 47.352L139.47 36.004ZM156.394 68.709C156.121 68.812 155.823 68.675 155.716 68.404L152.415 59.614C152.318 59.339 152.013 59.2 151.739 59.303L147.146 61.026C146.878 61.128 146.736 61.431 146.837 61.707L149.313 68.299C149.414 68.567 149.276 68.874 149.003 68.979L147.27 69.624C147.001 69.726 146.697 69.589 146.594 69.317L144.121 62.725C144.016 62.452 143.711 62.314 143.445 62.413L140.873 63.378C140.597 63.481 140.459 63.785 140.564 64.058L143.905 72.972C144.012 73.243 143.876 73.551 143.598 73.651L141.87 74.301C141.601 74.404 141.295 74.262 141.194 73.99L136.703 62.039C136.606 61.767 136.745 61.461 137.015 61.361L153.309 55.246C153.58 55.144 153.887 55.281 153.991 55.553L158.434 67.385C158.53 67.656 158.389 67.959 158.121 68.059L156.394 68.709ZM81.819 20.473C81.073 16.782 77.033 14.941 72.821 15.797L66.204 17.138C65.92 17.196 65.736 17.473 65.792 17.757L69.254 34.818C69.308 35.099 69.588 35.29 69.87 35.23L72.019 34.795C72.302 34.736 72.49 34.456 72.432 34.17L71.46 29.39C71.405 29.107 71.588 28.828 71.874 28.769L74.948 28.145C78.93 27.336 82.647 24.562 81.819 20.473ZM71.292 25.899C71.006 25.958 70.73 25.773 70.672 25.49L69.558 20.008C69.502 19.727 69.687 19.442 69.973 19.384L73.147 18.74C75.528 18.261 77.276 19.063 77.711 21.209C78.106 23.146 76.875 24.766 74.469 25.257L71.292 25.899ZM22.391 59.827C23.144 58.082 24.469 56.996 26.082 56.227C26.34 56.102 26.454 55.783 26.325 55.519L25.4 53.595C25.269 53.339 24.956 53.227 24.699 53.356C22.697 54.302 20.899 55.771 19.664 58.614C17.43 63.746 19.802 69.063 24.64 71.171L24.544 71.128C29.379 73.232 34.886 71.344 37.115 66.211C38.357 63.371 38.211 61.057 37.547 58.942C37.457 58.669 37.163 58.515 36.888 58.595L34.842 59.229C34.57 59.316 34.413 59.614 34.499 59.89C35.031 61.591 35.139 63.301 34.383 65.044C32.965 68.29 29.287 69.478 25.952 68.024C22.609 66.576 20.973 63.075 22.391 59.827ZM152.094 86.452C151.08 86.431 150.242 87.234 150.22 88.247C150.195 89.262 151.003 90.097 152.017 90.119C153.028 90.139 153.871 89.334 153.889 88.324C153.912 87.309 153.11 86.471 152.094 86.452Z" fill="white"/>
</g>
<defs>
<pattern id="pattern0" patternContentUnits="objectBoundingBox" width="1" height="1">
<use xlink:href="#image0"/>
</pattern>
<clipPath id="clip0">
<rect width="175" height="175" fill="white"/>
</clipPath>
<image id="image0" xlink:href="data:image/png;base64,iVBORw0KGgoAAAANSUhEUgAAALQAAAC1CAYAAAD2kdWXAAAACXBIWXMAAAsSAAALEgHS3X78AAAA"/>
</defs>
</svg>
